Origami/64x64/apps/wicd.svg

<svg width="64" height="64" version="1" xmlns="http://www.w3.org/2000/svg">
 <defs>
  <clipPath id="clipPath5078">
   <path d="m160 247c-7.9134 0-15.037 2.8117-20.945 7.1718l20.94 22.82 20.78-22.9c-5.88-4.31-12.93-7.09-20.78-7.09z" style="fill:#2095f2"/>
  </clipPath>
  <filter id="filter5060" y="-.14" width="1.205" height="1.288" style="color-interpolation-filters:sRGB">
   <feGaussianBlur stdDeviation="1.443"/>
  </filter>
  <clipPath id="clipPath5085">
   <path d="m160 247c-7.9134 0-15.037 2.8117-20.945 7.1718l20.94 22.82 20.78-22.9c-5.88-4.31-12.93-7.09-20.78-7.09z" style="fill:#2095f2"/>
  </clipPath>
  <filter id="filter5064" x="-.14" y="-.19" width="1.274" height="1.385" style="color-interpolation-filters:sRGB">
   <feGaussianBlur stdDeviation="1.443"/>
  </filter>
 </defs>
 <path d="m32.151497 12.000754c-10.553622 0-20.05328 3.749933-27.932997 9.565828l27.932997 30.433454 27.717003-30.543452c-7.847718-5.750697-17.24338-9.45663-27.717003-9.45663z" style="fill:#4f4f4f"/>
 <path transform="matrix(1.3336961,0,0,1.3336961,-181.22017,-317.41333)" d="m159.9 252.99c-6.3037 0-12.154 2.0674-16.853 5.5589l16.941 18.441 16.765-18.441c-4.71-3.49-10.56-5.56-16.86-5.56z" clip-path="url(#clipPath5078)" style="filter:url(#filter5060);opacity:.2"/>
 <path d="m32.044001 19.999999c-8.407249 0-16.210109 2.756339-22.477597 7.411684l22.595594 24.588316 22.359599-24.588316c-6.265887-4.654545-14.069747-7.411084-22.477596-7.411084z" style="fill:#797979"/>
 <path transform="matrix(1.3336961,0,0,1.3336961,-181.22017,-317.41333)" d="m159.9 258.99c-4.7278 0-9.1156 1.5505-12.64 4.1692l12.706 13.831 12.574-13.831c-3.524-2.6186-7.9119-4.1692-12.64-4.1692z" clip-path="url(#clipPath5085)" style="filter:url(#filter5064);opacity:.2"/>
 <path d="m32.044001 28.000436c-6.305487 0-12.157582 2.067277-16.857498 5.558454l16.945496 18.441546 16.769299-18.440146c-4.699916-3.491378-10.552211-5.558454-16.857497-5.558454z" style="fill:#e4e4e4"/>
 <path d="m32.013672 12.019531c-10.534062 4.66e-4 -20.017603 3.744942-27.882813 9.548828l0.5546875 0.605469c7.7556941-5.574946 17.038514-9.153842 27.328125-9.154297h0.001953c10.209435 4.53e-4 19.392105 3.537185 27.115234 9.050781l0.552735-0.609374c-7.835263-5.740404-17.215763-9.440943-27.667969-9.441407h-0.001953z" style="fill:#ffffff;opacity:.1"/>
 <path d="m32.046875 19.992188c-8.40725 0-16.214181 2.757546-22.480469 7.414062l0.5566408 0.603516c6.169977-4.412514 13.761713-7.017578 21.923828-7.017578l0.001953 0.001953c8.162708 0 15.753545 2.60562 21.923828 7.019531l0.552735-0.607422c-6.265887-4.655916-14.070714-7.412109-22.476563-7.412109l-0.001953-0.001953z" style="fill:#ffffff;opacity:.1"/>
 <path d="m32.046875 27.992188c-6.305487 0-12.159259 2.070163-16.859375 5.5625l0.564453 0.613281c4.602516-3.249217 10.234688-5.175781 16.294922-5.175781 6.061987 0 11.690078 1.928404 16.292969 5.179687l0.560547-0.617187c-4.699916-3.492537-10.54823-5.5625-16.853516-5.5625z" style="fill:#ffffff;opacity:.1"/>
 <path d="M 59.306641,22.074219 32.154297,52 4.78125,22.179688 c -0.1888716,0.126997 -0.3795033,0.251721 -0.5625,0.386718 L 32.154297,53 59.867188,22.457031 c -0.181997,-0.133197 -0.372301,-0.257265 -0.560547,-0.382812 z" style="opacity:.2"/>
</svg>

<svg xmlns="http://www.w3.org/2000/svg" width="64" height="64" version="1">
 <defs>
  <clipPath id="clipPath5078" clipPathUnits="userSpaceOnUse">
   <path style="fill:#2095f2" d="m 160,247 c -7.9134,0 -15.037,2.8117 -20.945,7.1718 l 20.94,22.82 20.78,-22.9 c -5.88,-4.31 -12.93,-7.09 -20.78,-7.09 z"/>
  </clipPath>
  <filter id="filter5060" style="color-interpolation-filters:sRGB" width="1.205" height="1.288" x="-.1" y="-.14">
   <feGaussianBlur stdDeviation="1.443"/>
  </filter>
  <clipPath id="clipPath5085" clipPathUnits="userSpaceOnUse">
   <path style="fill:#2095f2" d="m 160,247 c -7.9134,0 -15.037,2.8117 -20.945,7.1718 l 20.94,22.82 20.78,-22.9 c -5.88,-4.31 -12.93,-7.09 -20.78,-7.09 z"/>
  </clipPath>
  <filter id="filter5064" style="color-interpolation-filters:sRGB" width="1.274" height="1.385" x="-.14" y="-.19">
   <feGaussianBlur stdDeviation="1.443"/>
  </filter>
 </defs>
 <path style="fill:#4f4f4f" d="m 32.151497,12.000754 c -10.553622,0 -20.05328,3.749933 -27.9329969,9.565828 L 32.151497,52.000036 59.8685,21.456584 c -7.847718,-5.750697 -17.24338,-9.45663 -27.717003,-9.45663 z"/>
 <path style="opacity:0.2;filter:url(#filter5060)" d="m 159.9,252.99 c -6.3037,0 -12.154,2.0674 -16.853,5.5589 l 16.941,18.441 16.765,-18.441 c -4.71,-3.49 -10.56,-5.56 -16.86,-5.56 z" clip-path="url(#clipPath5078)" transform="matrix(1.3336961,0,0,1.3336961,-181.22017,-317.41333)"/>
 <path style="fill:#797979" d="m 32.044001,19.999999 c -8.407249,0 -16.210109,2.756339 -22.4775969,7.411684 L 32.161998,51.999999 54.521597,27.411683 C 48.25571,22.757138 40.45185,20.000599 32.044001,20.000599 Z"/>
 <path style="opacity:0.2;filter:url(#filter5064)" d="m 159.9,258.99 c -4.7278,0 -9.1156,1.5505 -12.64,4.1692 l 12.706,13.831 12.574,-13.831 c -3.524,-2.6186 -7.9119,-4.1692 -12.64,-4.1692 z" clip-path="url(#clipPath5085)" transform="matrix(1.3336961,0,0,1.3336961,-181.22017,-317.41333)"/>
 <path style="fill:#cccccc" d="m 32.044001,28.000436 c -6.305487,0 -12.157582,2.067277 -16.857498,5.558454 L 32.131999,52.000436 48.901298,33.56029 C 44.201382,30.068912 38.349087,28.001836 32.043801,28.001836 Z"/>
 <path style="opacity:0.1;fill:#ffffff" d="M 32.013672 12.019531 C 21.47961 12.019997 11.996069 15.764473 4.1308594 21.568359 L 4.6855469 22.173828 C 12.441241 16.598882 21.724061 13.019986 32.013672 13.019531 L 32.015625 13.019531 C 42.22506 13.019984 51.40773 16.556716 59.130859 22.070312 L 59.683594 21.460938 C 51.848331 15.720534 42.467831 12.019995 32.015625 12.019531 L 32.013672 12.019531 z"/>
 <path style="opacity:0.1;fill:#ffffff" d="M 32.046875 19.992188 C 23.639625 19.992188 15.832694 22.749734 9.5664062 27.40625 L 10.123047 28.009766 C 16.293024 23.597252 23.88476 20.992188 32.046875 20.992188 L 32.048828 20.994141 C 40.211536 20.994141 47.802373 23.599761 53.972656 28.013672 L 54.525391 27.40625 C 48.259504 22.750334 40.454677 19.994141 32.048828 19.994141 L 32.046875 19.992188 z"/>
 <path style="opacity:0.1;fill:#ffffff" d="M 32.046875 27.992188 C 25.741388 27.992188 19.887616 30.062351 15.1875 33.554688 L 15.751953 34.167969 C 20.354469 30.918752 25.986641 28.992188 32.046875 28.992188 C 38.108862 28.992188 43.736953 30.920592 48.339844 34.171875 L 48.900391 33.554688 C 44.200475 30.062151 38.352161 27.992188 32.046875 27.992188 z"/>
 <path style="opacity:0.2" d="M 59.306641,22.074219 32.154297,52 4.78125,22.179688 c -0.1888716,0.126997 -0.3795033,0.251721 -0.5625,0.386718 L 32.154297,53 59.867188,22.457031 c -0.181997,-0.133197 -0.372301,-0.257265 -0.560547,-0.382812 z"/>
</svg>
